X: 56
M: 2/4
L: 1/16
K: D
|:\
d'4 a4 | f2af d2A2 |\
d'4 a4 | f2af d2A2 |\
|:\
a2fd d'2fd | edef e2e2 |\
a2fd d'2fd | e4 e4 |
d'4 a4 | f2af d2A2 |\
d'4 a4 | f2af d2A2 |\


